public/themes/Gathenhielmska/assets/images/phone_icon.svg

<svg fill="none" height="13" viewBox="0 0 13 13" width="13" xmlns="http://www.w3.org/2000/svg"><path d="m2.53015 5.38328c.96 1.88666 2.50667 3.42666 4.39334 4.39333l1.46666-1.46667c.18001-.18.44667-.24.68001-.16.74666.24667 1.55334.38 2.38004.38.3666 0 .6666.3.6666.66667v2.32669c0 .3666-.3.6666-.6666.6666-6.26005 0-11.333379-5.07329-11.333379-11.333292 0-.366667.3-.666667.666667-.666667h2.333332c.36667 0 .66667.3.66667.666667 0 .833332.13333 1.633332.38 2.380002.07333.23333.02.49333-.16667.68z" fill="#fff"/></svg>

<svg width="13" height="13" viewBox="0 0 13 13" fill="none" xmlns="http://www.w3.org/2000/svg">
<path d="M2.53015 5.38328C3.49015 7.26994 5.03682 8.80994 6.92349 9.77661L8.39015 8.30994C8.57016 8.12994 8.83682 8.06994 9.07016 8.14994C9.81682 8.39661 10.6235 8.52994 11.4502 8.52994C11.8168 8.52994 12.1168 8.82994 12.1168 9.19661V11.5233C12.1168 11.8899 11.8168 12.1899 11.4502 12.1899C5.19015 12.1899 0.116821 7.11661 0.116821 0.856608C0.116821 0.489941 0.416821 0.189941 0.783488 0.189941H3.11682C3.48349 0.189941 3.78349 0.489941 3.78349 0.856608C3.78349 1.68994 3.91682 2.48994 4.16349 3.23661C4.23682 3.46994 4.18349 3.72994 3.99682 3.91661L2.53015 5.38328Z" fill="white"/>
</svg>
